X: '1'
T:Les soirées Trad.
C:Laurence Beaudry
N:Pour Patrice Declos
R:slip jig
M:9/8
L:1/8
K:D
ABA FED E2B, | A,B,D FED EFE | ABA FED E2d |1 cdc BcB A3 :|2 cec BcB A2g |:
faf dfd A2g | bgg ege cBA | faf dfd A2g  bgg fed c2A ::
GEE B2G d2B | AFF DFF ABA |1 GEE B,2E G2A | FDD A,DD FGA :|2 GBB FBB G2e | dcB AFG E3 |]
